packages/sights/assets/overlays/QJ_yOnBl.svg

<svg width="500" height="375" viewBox="0 0 500 375" fill="none" xmlns="http://www.w3.org/2000/svg">
<path d="M493 155.75C493 155.75 458 137.41 389.54 131.9L371.73 117.75" stroke="white" stroke-miterlimit="10"/>
<path d="M341.801 97.36C341.801 97.36 263.271 45.53 239.881 36.82L204.571 25.36C204.571 25.36 105.001 5 93.5908 5" stroke="white" stroke-miterlimit="10"/>
<path d="M493 206.5C493 206.5 431.42 224.23 420.11 310.14L411.24 325.75L407.57 328.19L213.74 369.51" stroke="white" stroke-miterlimit="10"/>
<path d="M452.52 218.12C452.52 218.12 427.14 237.07 412.16 289.36L6.99954 350.96" stroke="white" stroke-miterlimit="10"/>
<path d="M452.52 369.5L416.44 346.83C416.44 346.83 403.22 332.67 403.87 328.97" stroke="white" stroke-miterlimit="10"/>
<path d="M493.25 244.93C474.25 245.33 454.93 264.76 447.9 292.21C439.96 323.28 450.72 352.87 471.9 358.3C478.9 360.09 486.22 359.02 493.13 355.65" stroke="white" stroke-miterlimit="10"/>
<path d="M366.61 137.75L345.28 139.66L341.8 138.21L339.24 104.27C339.24 104.27 340.77 97.2698 343.68 96.8598C343.68 96.8598 353.15 94.7198 372.34 108.55L371.19 122.47L366.61 137.75Z" stroke="white" stroke-miterlimit="10"/>
<path d="M344.821 139.62C348.871 138.4 354.451 131.21 354.451 131.21C355.371 127.7 354.831 104.39 354.831 104.39C353.541 101.48 347.281 96.8198 347.281 96.8198" stroke="white" stroke-miterlimit="10"/>
<path d="M367.809 133.75C367.809 133.75 376.919 135.99 380.809 135.69C380.809 135.69 384.169 142.03 386.539 144.55L345.809 139.66" stroke="white" stroke-miterlimit="10"/>
<path d="M339.24 103.01C339.24 103.01 256.16 46.4503 233 40.0303C233 40.0303 149.08 12.6203 22.5002 5.03027" stroke="white" stroke-miterlimit="10"/>
<path d="M380.371 135.67L370.071 126.16" stroke="white" stroke-miterlimit="10"/>
<path d="M345.279 139.62C345.279 139.62 15.5693 108.82 6.9993 114.32" stroke="white" stroke-miterlimit="10"/>
<path d="M84.2103 10.4902C84.2103 10.4902 109.58 113.22 109.61 119.28L123.55 166.91C123.55 166.91 136.69 244.34 133.94 291.8L134.32 299.14L146.32 326.65L144.8 364.75L143.88 369.53" stroke="white" stroke-miterlimit="10"/>
<path d="M194 178.41C194.239 178.721 194.392 179.089 194.443 179.478C194.494 179.866 194.441 180.262 194.29 180.623C194.138 180.985 193.894 181.3 193.581 181.537C193.269 181.773 192.899 181.923 192.51 181.97H164L161.82 180.19L160.91 177.19L159.41 176.62C159.41 176.62 139.58 178.22 138.89 180.06L137.89 182.01L139.27 189.34C139.27 189.34 140.76 190.61 141.33 190.61C141.9 190.61 200.95 191.61 209.66 190.61L211.1 188.75V182.9L209.1 180.73C209.1 180.73 198.83 177.95 194 178.41Z" stroke="white" stroke-miterlimit="10"/>
<path d="M386.55 144.51L393.55 149.75L404.06 175.75C404.06 175.75 410.06 261.52 404.06 290.56" stroke="white" stroke-miterlimit="10"/>
</svg>

<svg width="500" height="375" fill="none" xmlns="http://www.w3.org/2000/svg"><path d="M493 155.75s-35-18.34-103.46-23.85l-17.81-14.15M341.801 97.36s-78.53-51.83-101.92-60.54l-35.31-11.46S105.001 5 93.591 5M493 206.5s-61.58 17.73-72.89 103.64l-8.87 15.61-3.67 2.44-193.83 41.32" stroke="#fff" stroke-miterlimit="10"/><path d="M452.52 218.12s-25.38 18.95-40.36 71.24L7 350.96M452.52 369.5l-36.08-22.67s-13.22-14.16-12.57-17.86M493.25 244.93c-19 .4-38.32 19.83-45.35 47.28-7.94 31.07 2.82 60.66 24 66.09 7 1.79 14.32.72 21.23-2.65M366.61 137.75l-21.33 1.91-3.48-1.45-2.56-33.94s1.53-7 4.44-7.41c0 0 9.47-2.14 28.66 11.69l-1.15 13.92-4.58 15.28Z" stroke="#fff" stroke-miterlimit="10"/><path d="M344.821 139.62c4.05-1.22 9.63-8.41 9.63-8.41.92-3.51.38-26.82.38-26.82-1.29-2.91-7.55-7.57-7.55-7.57M367.809 133.75s9.11 2.24 13 1.94c0 0 3.36 6.34 5.73 8.86l-40.73-4.89M339.24 103.01S256.16 46.45 233 40.03c0 0-83.92-27.41-210.5-35M380.371 135.67l-10.3-9.51" stroke="#fff" stroke-miterlimit="10"/><path d="M345.279 139.62s-329.71-30.8-338.28-25.3" stroke="#fff" stroke-miterlimit="10"/><path d="M84.21 10.49s25.37 102.73 25.4 108.79l13.94 47.63s13.14 77.43 10.39 124.89l.38 7.34 12 27.51-1.52 38.1-.92 4.78M194 178.41a2.228 2.228 0 0 1 .29 2.213 2.226 2.226 0 0 1-1.78 1.347H164l-2.18-1.78-.91-3-1.5-.57s-19.83 1.6-20.52 3.44l-1 1.95 1.38 7.33s1.49 1.27 2.06 1.27c.57 0 59.62 1 68.33 0l1.44-1.86v-5.85l-2-2.17s-10.27-2.78-15.1-2.32ZM386.55 144.51l7 5.24 10.51 26s6 85.77 0 114.81" stroke="#fff" stroke-miterlimit="10"/></svg>
